public/external-logos/qualtrics-logo.svg

<svg width="131" height="42" viewBox="0 0 131 42" fill="none" xmlns="http://www.w3.org/2000/svg">
<defs>
    <linearGradient id="qualtrics-linear-gradient" x1="0.133" y1="0.008" x2="0.949" y2="1.101" gradientUnits="objectBoundingBox">
        <stop offset="0.042" stop-color="#21dbaa"/>
        <stop offset="0.358" stop-color="#00b4ef"/>
        <stop offset="0.433" stop-color="#01a7ec"/>
        <stop offset="0.568" stop-color="#0487e4"/>
        <stop offset="0.68" stop-color="#0768dd"/>
        <stop offset="0.965" stop-color="#5f1ae5"/>
    </linearGradient>
</defs>
<path d="M43.28 25.9701C42.4768 25.9701 42.2984 25.3432 42.2984 24.3581V14.1492C42.2984 10.6566 40.3352 8.59692 37.0334 8.59692C33.107 8.59692 31.3222 11.6417 31.3222 14.5969V14.6865H33.9993V14.5969C33.9993 13.6118 34.3563 12.6268 34.9809 11.8208C35.5164 11.2835 36.2303 11.0148 36.9441 11.0148C38.5504 11.0148 39.4428 12.2686 39.4428 14.3283V15.3133L36.3195 16.8357C32.75 18.5372 30.4298 19.8805 30.4298 23.373C30.4298 26.4178 32.3931 28.5671 35.2486 28.5671C37.0334 28.4775 38.6397 27.6715 39.6213 26.2387C39.9782 27.6715 41.2275 28.5671 42.6553 28.5671C43.1907 28.5671 43.7262 28.4775 44.2616 28.2089H44.3508V25.7014L44.1723 25.791C43.9046 25.8805 43.6369 25.9701 43.28 25.9701ZM39.4428 17.8208V23.8208C38.7289 25.1641 37.3903 25.9701 35.8733 26.1492C34.5347 26.2387 33.3747 25.1641 33.2854 23.8208C33.2854 23.7313 33.2854 23.5521 33.2854 23.4626C33.2854 21.1342 35.3379 19.8805 37.1226 18.985L39.4428 17.8208Z" fill="black"/>
<path d="M57.9148 2.86572H55.1485L55.0593 8.95527H52.5606V11.5523H55.0593V24.0896C55.0593 26.8657 56.3978 28.4777 58.8072 28.4777C59.7888 28.4777 60.7704 28.209 61.6628 27.6717H61.752V25.0747L61.5736 25.2538C61.0381 25.7015 60.3242 26.0598 59.6104 26.0598C58.361 26.0598 58.0933 24.9851 58.0933 24.0896V11.5523H62.1982V8.95527H58.0933V2.86572H57.9148Z" fill="black"/>
<path d="M24.5402 23.6419C23.4694 25.2538 22.22 26.0598 21.06 26.0598C19.5429 26.0598 18.9183 24.5374 18.9183 23.1046V8.95532H16.0627V23.2837C16.0627 26.5971 17.5797 28.5673 20.1676 28.5673C21.9523 28.5673 23.5586 27.6717 24.5402 26.2389L24.6294 28.2091H27.3958V8.95532H24.5402V23.6419Z" fill="black"/>
<path d="M9.81608 10.7462C9.10218 9.40287 7.67439 8.5969 6.06812 8.68645C4.37262 8.68645 2.85559 9.58197 1.87398 10.9253C0.624659 12.6267 0 15.2238 0 18.5372C0 25.8805 2.94482 28.4775 5.71117 28.4775C7.2282 28.4775 8.56676 27.8506 9.45913 26.6864V41.9103H12.3147V8.95511H9.81608V10.7462ZM9.54837 13.3432V23.8208C8.74523 25.2536 7.76362 25.97 6.51431 25.97C4.19414 25.97 2.94482 23.4626 2.94482 18.5372C2.94482 13.7909 4.28338 11.1044 6.60354 11.1044C7.9421 11.1044 9.10218 12.0894 9.54837 13.3432Z" fill="black"/>
<path d="M49.5266 0H46.671V28.1194H49.5266V0Z" fill="black"/>
<path d="M78.4394 8.95532H75.5838V28.1195H78.4394V8.95532Z" fill="black"/>
<path d="M78.5286 2.86572H75.673V6.17916H78.5286V2.86572Z" fill="black"/>
<path d="M67.7309 11.1939L67.5524 8.95513H64.8753V28.2089H67.7309V14.3283C68.9802 11.7313 70.6757 11.373 72.282 11.373L72.9959 11.4626V8.59692H72.1928C70.1403 8.59692 69.0695 9.22379 67.7309 11.1939Z" fill="black"/>
<path d="M101.819 16.7462L101.73 16.8357L101.819 16.7462C100.035 15.8506 98.7854 15.0447 98.7854 13.4327C98.7854 12.179 99.767 11.1044 101.016 11.1044C101.106 11.1044 101.195 11.1044 101.284 11.1044C101.998 11.1044 102.712 11.373 103.158 11.9103C103.783 12.6268 104.05 13.6118 103.872 14.5969V14.776H106.549V14.6865C106.728 13.0745 106.192 11.4626 105.121 10.2089C104.14 9.22378 102.712 8.59691 101.373 8.68646C98.3392 8.68646 96.1083 10.7462 96.1083 13.7014C96.1083 16.9253 98.6962 18.2686 100.481 19.2536C102.266 20.2387 104.05 21.2238 104.05 23.1939C104.14 24.7163 102.89 26.0596 101.373 26.0596C101.284 26.0596 101.284 26.0596 101.195 26.0596C99.4101 26.0596 98.0715 24.5372 97.9823 22.2984V22.2089H95.3052V22.2984C95.3944 26.1491 97.6253 28.5671 101.195 28.5671C104.14 28.7462 106.638 26.5074 106.817 23.6417C106.817 23.4626 106.817 23.1939 106.817 23.0148C106.728 19.3432 104.14 17.9999 101.819 16.7462Z" fill="black"/>
<path d="M90.6648 22.1195C90.6648 23.2837 90.3079 24.3583 89.594 25.2538C89.1478 25.7016 88.5232 25.9703 87.8985 25.9703C85.6676 25.9703 84.5075 23.3732 84.5075 18.5374C84.5075 13.7016 85.6676 11.015 87.8985 11.015C88.5232 11.015 89.0586 11.2837 89.5048 11.6419C90.1294 12.4479 90.4864 13.5225 90.4864 14.5971H93.1635C93.2527 12.8956 92.7173 11.1941 91.5572 9.9404C90.5756 8.95533 89.3263 8.50757 87.9877 8.50757C83.8828 8.50757 81.6519 12.0001 81.6519 18.4479C81.6519 24.8956 83.7936 28.3882 87.8093 28.3882C91.0218 28.3882 92.985 26.0598 93.2527 22.03L90.6648 22.1195Z" fill="black"/>
<path d="M110.743 26.5971C110.832 26.5076 110.832 26.3285 110.832 26.2389C110.832 26.0598 110.743 25.8807 110.654 25.7912C110.475 25.7016 110.297 25.6121 110.119 25.6121H109.137V27.6718H109.672V26.8658H110.029L110.386 27.5822H110.922L110.475 26.7762C110.565 26.7762 110.654 26.6867 110.743 26.5971ZM110.297 26.418C110.208 26.418 110.119 26.5076 110.029 26.5076H109.672V25.9703H110.029C110.119 25.9703 110.208 25.9703 110.297 26.0598C110.386 26.1494 110.386 26.1494 110.386 26.2389C110.386 26.3285 110.297 26.418 110.297 26.418Z" fill="black"/>
<path d="M111.636 25.8807C111.546 25.7016 111.457 25.4329 111.279 25.3434C111.1 25.1643 110.922 25.0747 110.743 24.9852C110.297 24.8061 109.762 24.8061 109.315 24.9852C109.137 25.0747 108.869 25.1643 108.78 25.3434C108.601 25.5225 108.512 25.7016 108.423 25.8807C108.245 26.3284 108.245 26.8658 108.423 27.4031C108.512 27.5822 108.601 27.8508 108.78 27.9404C108.958 28.1195 109.137 28.209 109.315 28.2986C109.762 28.4777 110.297 28.4777 110.743 28.2986C110.922 28.209 111.189 28.1195 111.279 27.9404C111.457 27.7613 111.546 27.5822 111.636 27.4031C111.814 26.8658 111.814 26.3284 111.636 25.8807ZM111.279 27.224C111.189 27.4031 111.1 27.5822 111.011 27.6717C110.922 27.7613 110.743 27.9404 110.565 27.9404C110.208 28.1195 109.762 28.1195 109.405 27.9404C109.226 27.8508 109.048 27.7613 108.958 27.6717C108.869 27.4926 108.691 27.4031 108.691 27.224C108.512 26.8658 108.512 26.418 108.691 26.0598C108.78 25.8807 108.869 25.7016 108.958 25.612C109.048 25.5225 109.226 25.3434 109.405 25.3434C109.762 25.1643 110.208 25.1643 110.565 25.3434C110.743 25.4329 110.922 25.5225 111.011 25.612C111.1 25.7911 111.279 25.8807 111.279 26.0598C111.457 26.418 111.457 26.8658 111.279 27.224Z" fill="black"/>
<path d="M127.485 2.75366L124.986 11.5298L122.309 2.75366H116.42L114.456 6.33575L112.315 2.75366H109.37L112.85 8.39544L109.013 14.6641H111.779L114.189 10.5447L116.687 14.6641H121.149V6.42528C121.238 6.78349 121.238 7.05215 121.328 7.3208C121.417 7.58946 121.417 7.76855 121.506 8.03721C121.595 8.21632 121.595 8.48498 121.685 8.66409C121.774 8.84319 121.774 9.02231 121.863 9.29096L123.648 14.7536H125.968L127.753 9.29096C127.842 8.8432 128.02 8.39542 128.11 8.03721C128.199 7.58945 128.288 7.14169 128.377 6.69393V14.8432H130.876V2.93272L127.485 2.75366ZM115.795 8.39544L118.918 3.20142V13.4103L115.795 8.39544Z" fill="url(#qualtrics-linear-gradient)" />
</svg>

<svg width="131" height="42" fill="none" xmlns="http://www.w3.org/2000/svg"><defs><linearGradient id="a" x1=".133" y1=".008" x2=".949" y2="1.101" gradientUnits="objectBoundingBox"><stop offset=".042" stop-color="#21dbaa"/><stop offset=".358" stop-color="#00b4ef"/><stop offset=".433" stop-color="#01a7ec"/><stop offset=".568" stop-color="#0487e4"/><stop offset=".68" stop-color="#0768dd"/><stop offset=".965" stop-color="#5f1ae5"/></linearGradient></defs><path d="M43.28 25.97c-.803 0-.982-.627-.982-1.612V14.15c0-3.492-1.963-5.552-5.265-5.552-3.926 0-5.71 3.045-5.71 6v.09h2.676v-.09c0-.985.357-1.97.982-2.776a2.764 2.764 0 0 1 1.963-.806c1.606 0 2.499 1.254 2.499 3.313v.985l-3.123 1.523c-3.57 1.701-5.89 3.045-5.89 6.537 0 3.045 1.963 5.194 4.819 5.194 1.784-.09 3.39-.895 4.372-2.328.357 1.433 1.606 2.328 3.034 2.328.536 0 1.071-.09 1.607-.358h.089V25.7l-.179.09c-.267.09-.535.18-.892.18Zm-3.837-8.15v6c-.714 1.344-2.053 2.15-3.57 2.33-1.338.089-2.498-.986-2.588-2.33v-.357c0-2.329 2.053-3.582 3.838-4.478l2.32-1.164ZM57.915 2.866h-2.767l-.089 6.09h-2.498v2.596h2.498V24.09c0 2.776 1.339 4.388 3.748 4.388.982 0 1.963-.269 2.856-.806h.089v-2.597l-.178.179c-.536.447-1.25.806-1.964.806-1.249 0-1.517-1.075-1.517-1.97V11.552h4.105V8.955h-4.105v-6.09h-.178ZM24.54 23.642c-1.07 1.612-2.32 2.418-3.48 2.418-1.517 0-2.142-1.523-2.142-2.955V8.955h-2.855v14.329c0 3.313 1.517 5.283 4.105 5.283 1.784 0 3.39-.895 4.372-2.328l.09 1.97h2.766V8.955H24.54v14.687ZM9.816 10.746c-.714-1.343-2.142-2.15-3.748-2.06-1.695 0-3.212.896-4.194 2.24C.624 12.625 0 15.223 0 18.536c0 7.344 2.945 9.94 5.711 9.94 1.517 0 2.856-.626 3.748-1.79V41.91h2.856V8.955H9.816v1.791Zm-.268 2.597v10.478c-.803 1.433-1.784 2.149-3.034 2.149-2.32 0-3.57-2.507-3.57-7.433 0-4.746 1.34-7.433 3.66-7.433 1.338 0 2.498.985 2.944 2.24ZM49.527 0H46.67v28.12h2.856V0ZM78.44 8.955h-2.856V28.12h2.855V8.955ZM78.529 2.866h-2.856v3.313h2.856V2.866ZM67.73 11.194l-.178-2.239h-2.677V28.21h2.856v-13.88c1.25-2.598 2.945-2.956 4.551-2.956l.714.09V8.597h-.803c-2.053 0-3.123.627-4.462 2.597ZM101.819 16.746l-.089.09.089-.09c-1.784-.895-3.034-1.701-3.034-3.313 0-1.254.982-2.329 2.231-2.329h.268c.714 0 1.428.269 1.874.806.625.717.892 1.702.714 2.687v.179h2.677v-.09c.179-1.611-.357-3.223-1.428-4.477-.981-.985-2.409-1.612-3.748-1.523-3.034 0-5.265 2.06-5.265 5.015 0 3.224 2.588 4.568 4.373 5.553 1.785.985 3.569 1.97 3.569 3.94.09 1.522-1.16 2.866-2.677 2.866h-.178c-1.785 0-3.123-1.523-3.213-3.762v-.09h-2.677v.09c.09 3.851 2.32 6.27 5.89 6.27 2.945.178 5.443-2.06 5.622-4.926v-.627c-.089-3.672-2.677-5.015-4.998-6.269ZM90.665 22.12c0 1.164-.357 2.238-1.071 3.134a2.434 2.434 0 0 1-1.695.716c-2.231 0-3.392-2.597-3.392-7.433 0-4.835 1.16-7.522 3.391-7.522.625 0 1.16.269 1.607.627.624.806.981 1.88.981 2.955h2.677c.09-1.701-.446-3.403-1.606-4.657-.981-.985-2.23-1.432-3.57-1.432-4.104 0-6.335 3.492-6.335 9.94 0 6.448 2.142 9.94 6.157 9.94 3.213 0 5.176-2.328 5.444-6.358l-2.588.09ZM110.743 26.597c.089-.09.089-.269.089-.358a.686.686 0 0 0-.178-.448c-.179-.09-.357-.179-.535-.179h-.982v2.06h.535v-.806h.357l.357.716h.536l-.447-.806c.09 0 .179-.09.268-.179Zm-.446-.179c-.089 0-.178.09-.268.09h-.357v-.538h.357c.09 0 .179 0 .268.09.089.09.089.09.089.179 0 .09-.089.179-.089.179Z" fill="#000"/><path d="M111.636 25.88c-.09-.178-.179-.447-.357-.537a1.867 1.867 0 0 0-.536-.358 1.965 1.965 0 0 0-1.428 0c-.178.09-.446.18-.535.358-.179.18-.268.359-.357.538-.178.447-.178.985 0 1.522.089.18.178.448.357.537.178.18.357.269.535.359.447.179.982.179 1.428 0 .179-.09.446-.18.536-.359.178-.179.267-.358.357-.537.178-.537.178-1.075 0-1.522Zm-.357 1.344c-.09.18-.179.358-.268.448-.089.09-.268.268-.446.268a1.32 1.32 0 0 1-1.16 0c-.179-.09-.357-.179-.447-.268-.089-.18-.267-.269-.267-.448a1.33 1.33 0 0 1 0-1.164c.089-.18.178-.358.267-.448.09-.09.268-.269.447-.269a1.32 1.32 0 0 1 1.16 0c.178.09.357.18.446.269.089.18.268.269.268.448.178.358.178.806 0 1.164Z" fill="#000"/><path d="m127.485 2.754-2.499 8.776-2.677-8.776h-5.889l-1.964 3.582-2.141-3.582h-2.945l3.48 5.641-3.837 6.27h2.766l2.41-4.12 2.498 4.12h4.462v-8.24c.089.358.089.627.179.896.089.268.089.448.178.716.089.18.089.448.179.627.089.18.089.358.178.627l1.785 5.463h2.32l1.785-5.463c.089-.448.267-.896.357-1.254l.267-1.343v8.15h2.499V2.932l-3.391-.18Zm-11.69 5.641 3.123-5.194v10.21l-3.123-5.016Z" fill="url(#a)"/></svg>
